images/icons/v2/video-off-solid-28.svg

<svg height="28" viewBox="0 0 28 28" width="28" xmlns="http://www.w3.org/2000/svg"><path d="m22 12 3.29-3.29a1 1 0 0 1 1.71.7v9.18a1 1 0 0 1 -1.71.7l-3.29-3.29zm2.5-9.5-4.65 4.65a3 3 0 0 0 -2.35-1.15h-11.5a3 3 0 0 0 -3 3v10a3 3 0 0 0 2.14 2.86l-2.64 2.64 1.06 1.06 22-22zm-15.26 19.5h8.26a3 3 0 0 0 3-3v-8.26z"/></svg>

<svg xmlns="http://www.w3.org/2000/svg" width="28" height="28" viewBox="0 0 28 28"><title>video-off-solid-28</title><path d="M22,12l3.29-3.29a1,1,0,0,1,1.71.7v9.18a1,1,0,0,1-1.71.7L22,16Zm2.5-9.5L19.85,7.15A3,3,0,0,0,17.5,6H6A3,3,0,0,0,3,9V19a3,3,0,0,0,2.14,2.86L2.5,24.5l1.06,1.06,22-22ZM9.24,22H17.5a3,3,0,0,0,3-3V10.74Z"/></svg>
